svgs/duotone/boxes-stacked.svg

<svg xmlns="http://www.w3.org/2000/svg" viewBox="0 0 576 512"><!-- Font Awesome Pro 6.0.0-alpha2 by @fontawesome - https://fontawesome.com License - https://fontawesome.com/license (Commercial License) --><defs><style>.fa-secondary{opacity:.4}</style></defs><path d="M96 384L128 362.75L160 384V288H96V384ZM256 96L288 74.75L320 96V0H256V96ZM416 288V384L448 362.75L480 384V288H416Z" class="fa-secondary"/><path d="M192 224H384C401.602 224 416 209.6 416 192V32C416 14.4 401.602 0 384 0H320V96L288 74.75L256 96V0H192C174.398 0 160 14.4 160 32V192C160 209.6 174.398 224 192 224ZM224 288H160V384L128 362.75L96 384V288H32C14.398 288 0 302.4 0 320V480C0 497.6 14.398 512 32 512H224C241.602 512 256 497.6 256 480V320C256 302.4 241.602 288 224 288ZM544 288H480V384L448 362.75L416 384V288H352C334.398 288 320 302.4 320 320V480C320 497.6 334.398 512 352 512H544C561.602 512 576 497.6 576 480V320C576 302.4 561.602 288 544 288Z" class="fa-primary"/></svg>

<svg xmlns="http://www.w3.org/2000/svg" viewBox="0 0 576 512"><!--! Font Awesome Pro 6.0.0-alpha3 by @fontawesome - https://fontawesome.com License - https://fontawesome.com/license (Commercial License) --><defs><style>.fa-secondary{opacity:.4}</style></defs><path class="fa-primary" d="M192 224h192c17.6 0 32-14.4 32-32V32c0-17.6-14.4-32-32-32h-64v96l-32-21.25L256 96V0H192C174.4 0 160 14.4 160 32v160C160 209.6 174.4 224 192 224zM224 288H160v96l-32-21.25L96 384V288H32c-17.6 0-32 14.4-32 32v160c0 17.6 14.4 32 32 32h192c17.6 0 32-14.4 32-32v-160C256 302.4 241.6 288 224 288zM544 288h-64v96l-32-21.25L416 384V288h-64c-17.6 0-32 14.4-32 32v160c0 17.6 14.4 32 32 32h192c17.6 0 32-14.4 32-32v-160C576 302.4 561.6 288 544 288z"/><path class="fa-secondary" d="M96 384l32-21.25L160 384V288H96V384zM256 96l32-21.25L320 96V0H256V96zM416 288v96l32-21.25L480 384V288H416z"/></svg>
